src/assets/img/tokens/DPI.svg

<svg width="128" height="128" viewBox="0 0 128 128" fill="none" xmlns="http://www.w3.org/2000/svg">
<mask id="mask0" mask-type="alpha" maskUnits="userSpaceOnUse" x="0" y="0" width="128" height="128">
<path d="M0 0H128V128H0V0Z" fill="white"/>
</mask>
<g mask="url(#mask0)">
<path d="M128 64C128 99.3463 99.3464 128 64 128C28.6537 128 0 99.3463 0 64C0 28.6536 28.6537 0 64 0C99.3464 0 128 28.6536 128 64Z" fill="#8150E6"/>
</g>
<path d="M125.608 81.3876L80.0436 36.5495L54.0793 31.7017L38.8835 88.881L77.2258 126.628C100.553 121.726 119.204 104.124 125.608 81.3876Z" fill="#3C176B"/>
<path d="M58.4751 83.8685V48.4872H67.4172C70.423 48.4872 73.183 48.8686 75.6983 49.6316C78.2117 50.3947 80.3891 51.5816 82.2294 53.1924C82.4818 53.413 82.7249 53.6453 82.9625 53.8852C82.9934 49.0892 81.2564 44.3098 78.7985 39.9878C76.0706 39.2162 73.2631 38.8232 70.3719 38.8232H48.6777V83.8242C51.9749 83.8618 55.1945 84.1299 58.4751 83.8685Z" fill="#6B42BD"/>
<path d="M96.0313 55.5662C94.476 51.8086 92.4021 48.6865 89.8107 46.199C87.2181 43.7128 84.2378 41.8626 80.8687 40.6466C80.1843 40.3996 79.4933 40.1848 78.7983 39.9883C81.2562 44.3103 82.9932 49.0897 82.9623 53.8857C84.4544 55.3926 85.4077 61.2358 86.3028 63.4781L58.4749 88.8825V83.869C55.1943 84.1304 51.9747 83.8623 48.678 83.8247V98.546H69.2054C72.5222 98.546 75.9044 97.9396 79.3523 96.7236C82.7994 95.5089 85.9349 93.6717 88.7608 91.2133C91.5857 88.7549 93.8929 85.6476 95.6813 81.8886C97.4697 78.1309 98.3639 73.6805 98.3639 68.5372C98.3639 63.4508 97.5865 59.3252 96.0313 55.5662Z" fill="#9B74EC"/>
<path d="M55.9884 79.2043C59.0466 79.2043 61.9369 78.823 64.658 78.0599C67.3795 77.2968 69.7511 76.1099 71.7727 74.4996C73.7943 72.8889 75.3885 70.7988 76.5548 68.2263C77.7211 65.6555 78.3043 62.5334 78.3043 58.859C78.3043 55.2432 77.7856 52.4304 76.7491 49.8301C75.7116 47.2311 74.2732 45.1254 72.4338 43.5147C70.593 41.9039 68.4161 40.717 65.9022 39.9544C63.3874 39.1913 60.6269 38.81 57.6211 38.81H48.6795V79.2043H55.9884ZM38.8821 29.146H60.5758C64.2037 29.146 67.7027 29.7538 71.0732 30.9684C74.4419 32.1844 77.4222 34.0346 80.0149 36.5212C82.6066 39.0087 84.6806 42.1304 86.2354 45.888C87.7906 49.647 88.568 53.773 88.568 58.859C88.568 64.0023 87.6738 68.4527 85.8854 72.2104C84.097 75.9698 81.7898 79.0767 78.9653 81.5356C76.1395 83.994 73.0035 85.8307 69.5569 87.0454C66.1085 88.2614 62.7263 88.8683 59.4095 88.8683H38.8821V29.146Z" fill="white"/>
</svg>

<?xml version="1.0" encoding="utf-8"?>
<!-- Generator: Adobe Illustrator 21.0.0, SVG Export Plug-In . SVG Version: 6.00 Build 0)  -->
<svg version="1.1" id="图层_1" xmlns="http://www.w3.org/2000/svg" xmlns:xlink="http://www.w3.org/1999/xlink" x="0px" y="0px"
	 viewBox="0 0 128 128" style="enable-background:new 0 0 128 128;" xml:space="preserve">
<style type="text/css">
	.st0{fill:#FFFFFF;filter:url(#Adobe_OpacityMaskFilter);}
	.st1{mask:url(#mask0_30967_154432);}
	.st2{fill:#8150E6;}
	.st3{fill:#3C176B;}
	.st4{fill:#6B42BD;}
	.st5{fill:#9B74EC;}
	.st6{fill:#FFFFFF;}
</style>
<defs>
	<filter id="Adobe_OpacityMaskFilter" filterUnits="userSpaceOnUse" x="0" y="0" width="128" height="128">
		<feColorMatrix  type="matrix" values="1 0 0 0 0  0 1 0 0 0  0 0 1 0 0  0 0 0 1 0"/>
	</filter>
</defs>
<mask maskUnits="userSpaceOnUse" x="0" y="0" width="128" height="128" id="mask0_30967_154432">
	<path class="st0" d="M0,0h128v128H0V0z"/>
</mask>
<g class="st1">
	<path class="st2" d="M128,64c0,35.3-28.7,64-64,64C28.7,128,0,99.3,0,64C0,28.7,28.7,0,64,0C99.3,0,128,28.7,128,64z"/>
</g>
<path class="st3" d="M125.6,81.4L80,36.5l-26-4.8L38.9,88.9l38.3,37.7C100.6,121.7,119.2,104.1,125.6,81.4z"/>
<path class="st4" d="M58.5,83.9V48.5h8.9c3,0,5.8,0.4,8.3,1.1c2.5,0.8,4.7,2,6.5,3.6c0.3,0.2,0.5,0.5,0.7,0.7
	c0-4.8-1.7-9.6-4.2-13.9c-2.7-0.8-5.5-1.2-8.4-1.2H48.7v45C52,83.9,55.2,84.1,58.5,83.9z"/>
<path class="st5" d="M96,55.6c-1.6-3.8-3.6-6.9-6.2-9.4c-2.6-2.5-5.6-4.3-8.9-5.6c-0.7-0.2-1.4-0.5-2.1-0.7
	c2.5,4.3,4.2,9.1,4.2,13.9c1.5,1.5,2.4,7.4,3.3,9.6L58.5,88.9v-5c-3.3,0.3-6.5,0-9.8,0v14.7h20.5c3.3,0,6.7-0.6,10.1-1.8
	c3.4-1.2,6.6-3.1,9.4-5.5c2.8-2.5,5.1-5.6,6.9-9.3c1.8-3.8,2.7-8.2,2.7-13.4C98.4,63.5,97.6,59.3,96,55.6z"/>
<path class="st6" d="M56,79.2c3.1,0,5.9-0.4,8.7-1.1c2.7-0.8,5.1-1.9,7.1-3.6c2-1.6,3.6-3.7,4.8-6.3c1.2-2.6,1.7-5.7,1.7-9.4
	c0-3.6-0.5-6.4-1.6-9c-1-2.6-2.5-4.7-4.3-6.3c-1.8-1.6-4-2.8-6.5-3.6c-2.5-0.8-5.3-1.1-8.3-1.1h-8.9v40.4H56z M38.9,29.1h21.7
	c3.6,0,7.1,0.6,10.5,1.8c3.4,1.2,6.3,3.1,8.9,5.6c2.6,2.5,4.7,5.6,6.2,9.4c1.6,3.8,2.3,7.9,2.3,13c0,5.1-0.9,9.6-2.7,13.4
	c-1.8,3.8-4.1,6.9-6.9,9.3c-2.8,2.5-6,4.3-9.4,5.5c-3.4,1.2-6.8,1.8-10.1,1.8H38.9V29.1z"/>
</svg>
